lib/svgs/pre.svg

<?xml version="1.0" encoding="UTF-8" standalone="no"?>
<svg width="20px" height="20px" viewBox="0 0 20 20" version="1.1" xmlns="http://www.w3.org/2000/svg" xmlns:xlink="http://www.w3.org/1999/xlink">
    <defs></defs>
    <g id="Icons" stroke="none" stroke-width="1" fill="none" fill-rule="evenodd">
        <g id="Web" transform="translate(-289.000000, -1418.000000)" fill="#000000">
            <g id="editor/pre" transform="translate(289.000000, 1418.000000)">
                <path d="M5.94375,14.7097203 C5.77175,14.7097203 5.60075,14.6367203 5.48275,14.4937203 L2.13875,10.4797203 C1.95375,10.2567203 1.95375,9.93372029 2.13875,9.71172029 L5.48275,5.69672029 C5.69375,5.44172029 6.07275,5.40572029 6.32675,5.61972029 C6.58175,5.83172029 6.61675,6.20972029 6.40375,6.46372029 L3.38075,10.0957203 L6.40375,13.7267203 C6.61675,13.9807203 6.58175,14.3587203 6.32675,14.5707203 C6.21475,14.6647203 6.07875,14.7097203 5.94375,14.7097203 L5.94375,14.7097203 M8.92125,16.1911203 C8.88325,16.1911203 8.84425,16.1871203 8.80525,16.1791203 C8.48025,16.1161203 8.26825,15.8001203 8.33225,15.4751203 L10.48925,4.48412029 C10.55325,4.15912029 10.86625,3.94812029 11.19425,4.01112029 C11.51925,4.07512029 11.73125,4.39112029 11.66725,4.71612029 L9.50925,15.7061203 C9.45325,15.9921203 9.20225,16.1911203 8.92125,16.1911203 L8.92125,16.1911203 M14.05555,14.7097203 C13.92055,14.7097203 13.78455,14.6647203 13.67255,14.5707203 C13.41755,14.3587203 13.38255,13.9807203 13.59555,13.7267203 L16.61855,10.0957203 L13.59555,6.46372029 C13.38255,6.20972029 13.41755,5.83172029 13.67255,5.61972029 C13.92655,5.40772029 14.30555,5.44172029 14.51655,5.69672029 L17.86055,9.71172029 C18.04655,9.93372029 18.04655,10.2567203 17.86055,10.4797203 L14.51655,14.4937203 C14.39855,14.6367203 14.22755,14.7097203 14.05555,14.7097203 L14.05555,14.7097203" id="Shape"></path>
            </g>
        </g>
    </g>
</svg>

<svg xmlns="http://www.w3.org/2000/svg" viewBox="0 0 20 20">
    <path fill="#000" fill-rule="evenodd" d="M5.944 14.71a.595.595 0 0 1-.461-.216L2.139 10.48a.6.6 0 0 1 0-.768l3.344-4.015a.597.597 0 0 1 .844-.077c.255.212.29.59.077.844L3.38 10.096l3.023 3.63a.598.598 0 0 1-.46.984M8.92 16.19a.6.6 0 0 1-.589-.716l2.157-10.99a.6.6 0 1 1 1.178.231L9.51 15.706a.6.6 0 0 1-.588.485m5.135-1.481a.598.598 0 0 1-.46-.983l3.023-3.631-3.023-3.632a.598.598 0 1 1 .921-.767l3.344 4.015a.598.598 0 0 1 0 .768l-3.344 4.014a.595.595 0 0 1-.461.216"/>
</svg>
